X:1
T:Title
%%score ( 1 2 ) 3
L:1/8
Q:1/4=108
M:4/4
K:G
V:1 treble nm="Grand Piano, Staff 1"
V:2 treble 
V:3 bass nm="Choir Pad, Brocklesby, 87.87"
V:1
 [GB]2 [FA]2 [EG]2 D2 | [DF]2 [CE]2 [CE]2 [B,D]2 | [B,G]2 [B,G]2 [DB]2 [DB]2 | [^CA]2 [CB]2 [DA]4 | %4
w: By~Charlotte~Alington~Barnard,~1868 * * *||||
 [DB]2 [FA]2 [EG]2 D2 | [DF]2 [CE]2 [CE]2 [B,D]2 | [B,G]2 [CG]2 [^CG]2 FG | [DG]2 [CA]2 [B,G]4- | %8
w: ||||
 [B,G]4 z4 |] %9
w: |
V:2
 x8 | x8 | x8 | x8 | x8 | x8 | z4 z2 ^C2 | x8 | x8 |] %9
V:3
 [G,D]2 [D,C]2 [E,B,]2 [B,,G,]2 | [C,G,]2 [C,G,]2 [G,,G,]2 [G,,G,]2 | %2
 E,2 [E,G,]2 [B,,G,]2 [G,,G,]2 | [A,,G,]2 [A,,G,]2 [D,F,]4 | G,2 [D,C]2 [E,B,]2 [B,,G,]2 | %5
 [C,G,]2 [C,G,]2 [G,,G,]2 [G,,G,]2 | [E,G,]2 [E,G,]2 [^D,G,]2 [D,G,]2 | [D,G,]2 [D,F,]2 [G,,G,]4- | %8
 [G,,G,]4 z4 |] %9

